X: 54
T:Miss Greenup's Reel. WI.054
M:C|
Q:200
C:"by W.Irwin"
S:Wm Irwin, Folio MS, c1850. AGG's Transcription
R:Reel
O:England
A:Lake District
Z:vmp.Chris Partington.2005
K:F
C|F2Ac "tr"f2cf|Afcf eg"tr"g2|F2Ac fefd|cBAG F2:|!
e|"tr"f2cf Afcf|fcaf egga|"tr"f2cf Afcf |bd'c'b aff2|!
"tr"f2cf Afcf|fcaf eggb|"expresimo"agfe dcBA|BGcB AFF|]
